images/phone.svg

<svg width="15" height="15" viewBox="0 0 15 15" fill="none" xmlns="http://www.w3.org/2000/svg">
<path d="M-9.53674e-07 3.90347C-9.53674e-07 8.67698 6.33023 15 11.0982 15C12.1418 15 13.1166 14.6064 13.8353 13.8878L14.4602 13.1693C15.1851 12.4445 15.1851 11.2199 14.4289 10.4639C14.4102 10.4452 12.9042 9.28928 12.9042 9.28928C12.1543 8.57701 10.9732 8.57701 10.2296 9.28928L9.31726 10.0203C7.31758 9.17057 5.89905 7.74602 4.9867 5.67791L5.71158 4.7657C6.43022 4.02218 6.43022 2.83505 5.71158 2.09153C5.71158 2.09153 4.55552 0.585754 4.53677 0.56701C3.78064 -0.189003 2.55584 -0.189003 1.79971 0.56701L1.14357 1.13558C0.393686 1.8791 -9.53674e-07 2.8538 -9.53674e-07 3.89722V3.90347Z" fill="white"/>
</svg>

<?xml version="1.0" encoding="UTF-8"?>
<svg id="Layer_1" xmlns="http://www.w3.org/2000/svg" version="1.1" viewBox="0 0 15 15">
  <!-- Generator: Adobe Illustrator 30.1.0, SVG Export Plug-In . SVG Version: 2.1.1 Build 136)  -->
  <defs>
    <style>
      .st0 {
        fill: #4b8087;
      }
    </style>
  </defs>
  <path class="st0" d="M0,3.9C0,8.68,6.33,15,11.1,15c1.04,0,2.02-.39,2.74-1.11l.62-.72c.72-.72.72-1.95-.03-2.71-.02-.02-1.52-1.17-1.52-1.17-.75-.71-1.93-.71-2.67,0l-.91.73c-2-.85-3.42-2.27-4.33-4.34l.72-.91c.72-.74.72-1.93,0-2.67,0,0-1.16-1.51-1.17-1.52C3.78-.19,2.56-.19,1.8.57l-.66.57C.39,1.88,0,2.85,0,3.9H0Z"/>
</svg>
